Newaita-dark/devices/16/media-flash-ms.svg

<svg height="16pt" viewBox="0 0 16 16" width="16pt" xmlns="http://www.w3.org/2000/svg" xmlns:xlink="http://www.w3.org/1999/xlink"><linearGradient id="a"><stop offset="0" stop-opacity=".27451"/><stop offset="1" stop-opacity="0"/></linearGradient><linearGradient id="b" gradientUnits="userSpaceOnUse" x1="7.938261" x2="7.938261" xlink:href="#a" y1="13.9911025" y2="14.65262443751"/><linearGradient id="c"><stop offset="0" stop-opacity=".313725"/><stop offset=".222222" stop-opacity=".27451"/><stop offset="1" stop-opacity="0"/></linearGradient><radialGradient id="d" cx="450.90894" cy="189.57936" gradientTransform="matrix(.00000009 -.0390662 -.0703192 -.00000005 25.238422 31.771802)" gradientUnits="userSpaceOnUse" r="21.166656" xlink:href="#c"/><radialGradient id="e" cx="450.90894" cy="189.57936" gradientTransform="matrix(-.00000009 .0390662 .0703192 .00000005 -9.361906 -3.789605)" gradientUnits="userSpaceOnUse" r="21.166656" xlink:href="#c"/><radialGradient id="f" cx="450.90894" cy="189.57936" gradientTransform="matrix(-.00000009 -.0390662 .0703192 -.00000005 -9.361906 31.771802)" gradientUnits="userSpaceOnUse" r="21.166656" xlink:href="#c"/><radialGradient id="g" cx="450.90894" cy="189.57936" gradientTransform="matrix(.00000009 .0390662 -.0703192 .00000005 25.238421 -3.789605)" gradientUnits="userSpaceOnUse" r="21.166656" xlink:href="#c"/><linearGradient id="h" gradientUnits="userSpaceOnUse" x1="15.380377" x2="15.380377" xlink:href="#a" y1="13.9911025" y2="14.65262443751"/><radialGradient id="i" cx="450.90894" cy="189.57936" gradientTransform="matrix(-.00000009 .0390662 .0703192 .00000005 -1.919789 -3.789605)" gradientUnits="userSpaceOnUse" r="21.166656" xlink:href="#c"/><radialGradient id="j" cx="450.90894" cy="189.57936" gradientTransform="matrix(-.00000009 -.0390662 .0703192 -.00000005 -1.919789 31.771802)" gradientUnits="userSpaceOnUse" r="21.166656" xlink:href="#c"/><radialGradient id="k" cx="450.90894" cy="189.57936" gradientTransform="matrix(.00000009 -.0390662 -.0703192 -.00000005 17.796304 31.771802)" gradientUnits="userSpaceOnUse" r="21.166656" xlink:href="#c"/><radialGradient id="l" cx="450.90894" cy="189.57936" gradientTransform="matrix(.00000009 .0390662 -.0703192 .00000005 17.796303 -3.789605)" gradientUnits="userSpaceOnUse" r="21.166656" xlink:href="#c"/><linearGradient id="m" gradientUnits="userSpaceOnUse" x1="7.938262" x2="7.938262" y1="15.34001137502" y2=".125009"><stop offset="0" stop-color="#78909c"/><stop offset="1" stop-color="#90a4ae"/></linearGradient><linearGradient id="n" gradientUnits="userSpaceOnUse" x1="7.938262" x2="7.938262" xlink:href="#a" y1=".125009" y2="16.001533"/><path d="m3.804688 14.003906h.824218v.675782h-.824218zm0 0" fill="url(#b)"/><path d="m12.074219 13.992188h1.320312v-.664063h-1.320312zm0 0" fill="url(#d)"/><path d="m3.804688 13.992188h-1.324219v.660156h1.324219zm0 0" fill="url(#e)"/><path d="m3.804688 13.992188h-1.324219v-.664063h1.324219zm0 0" fill="url(#f)"/><path d="m12.074219 13.992188h1.320312v.660156h-1.320312zm0 0" fill="url(#g)"/><path d="m11.246094 14.003906h.828125v.675782h-.828125zm0 0" fill="url(#h)"/><path d="m11.246094 13.992188h-1.324219v.660156h1.324219zm0 0" fill="url(#i)"/><path d="m11.246094 13.992188h-1.324219v-.664063h1.324219zm0 0" fill="url(#j)"/><path d="m4.628906 13.992188h1.324219v-.664063h-1.324219zm0 0" fill="url(#k)"/><path d="m4.628906 13.992188h1.324219v.660156h-1.324219zm0 0" fill="url(#l)"/><path d="m5.953125 1.453125c-.175781 0-.339844.066406-.464844.191406l-2.644531 2.644531c-.125.125-.195312.292969-.195312.464844v8.601563c0 .363281.296874.660156.660156.660156h1.984375v-.328125c0-.367188.292969-.664062.660156-.664062h3.96875c.367187 0 .664063.296874.664063.664062v.328125h1.984374c.363282 0 .65625-.296875.65625-.660156v-11.246094c0-.363281-.292968-.65625-.65625-.65625zm0 0" fill="url(#m)"/><path d="m5.953125 12.78125c-.367187 0-.660156.292969-.660156.660156v.246094c0-.367188.292969-.664062.660156-.664062h3.96875c.367187 0 .664063.296874.664063.664062v-.246094c0-.367187-.296876-.660156-.664063-.660156zm-3.304687.328125v.246094c0 .363281.296874.660156.660156.660156h1.984375v-.246094h-1.984375c-.363282 0-.660156-.296875-.660156-.660156zm10.578124 0c0 .363281-.292968.660156-.65625.660156h-1.984374v.246094h1.984374c.363282 0 .65625-.296875.65625-.660156zm0 0" fill-opacity=".235294"/><path d="m6.285156 2.773438c-.175781 0-.34375.070312-.464844.195312l-1.65625 1.652344c-.121093.125-.191406.289062-.191406.464844v6.285156c0 .363281.292969.65625.65625.65625h6.617188c.363281 0 .65625-.292969.65625-.65625v-7.9375c0-.363282-.292969-.660156-.65625-.660156zm0 0" fill="url(#n)"/><path d="m3.972656 11.371094v.246094c0 .367187.292969.660156.65625.660156h6.617188c.363281 0 .65625-.292969.65625-.660156v-.246094c0 .363281-.292969.65625-.65625.65625h-6.617188c-.363281 0-.65625-.292969-.65625-.65625zm0 0" fill="#fff" fill-opacity=".392157"/><path d="m6.285156 2.773438c-.175781 0-.34375.070312-.464844.195312l-1.65625 1.652344c-.121093.125-.191406.289062-.191406.464844v.246093c0-.175781.070313-.34375.191406-.464843l1.65625-1.65625c.121094-.121094.289063-.191407.464844-.191407h4.960938c.363281 0 .65625.292969.65625.65625v-.242187c0-.363282-.292969-.660156-.65625-.660156zm0 0" fill-opacity=".235294"/><path d="m201.105795-126.258474c-5.624463 0-10.998949 2.249785-14.873579 6.249403l-52.99494 52.869951c-3.87463 3.999618-6.124415 9.249117-6.124415 14.87358v201.105795c0 11.62389 9.374105 20.997995 20.997995 20.997995h211.729781c11.62389 0 20.997995-9.374105 20.997995-20.997995v-253.975747c0-11.62389-9.374105-21.122982-20.997995-21.122982zm0 0" fill="none" stroke="#212121" stroke-linecap="round" stroke-linejoin="round" stroke-width="3" transform="matrix(.031253 0 0 .031253 0 6.719392)"/><path d="m5.953125 1.453125c-.175781 0-.339844.066406-.464844.191406l-2.644531 2.644531c-.125.125-.195312.292969-.195312.464844v.164063c0-.171875.070312-.339844.195312-.464844l2.644531-2.644531c.125-.125.289063-.195313.464844-.195313h6.617187c.363282 0 .65625.296875.65625.660157v-.164063c0-.363281-.292968-.65625-.65625-.65625zm0 0" fill="#fff" fill-opacity=".392157"/><path d="m719.931259 175.731252c-21.257813 0-41.098438 8.030729-56.215105 23.147396l-319.811983 319.811984c-15.116667 15.116666-23.619792 35.429687-23.619792 56.215104v1040.215639c0 43.932813 35.902084 79.834896 79.834897 79.834896h239.977086v-39.68125c0-44.405209 35.429688-80.307293 79.834897-80.307293h479.954173c44.405209 0 80.307292 35.902084 80.307292 80.307293v39.68125h239.977087c43.932813 0 79.362501-35.902083 79.362501-79.834896v-1360.027622c0-43.932813-35.429688-79.362501-79.362501-79.362501zm0 0" fill="none" stroke="#212121" stroke-linecap="round" stroke-linejoin="round" stroke-width="11.338583" transform="scale(.00826902)"/></svg>

<?xml version="1.0" encoding="UTF-8"?>
<svg xmlns="http://www.w3.org/2000/svg" xmlns:xlink="http://www.w3.org/1999/xlink" width="16pt" height="16pt" viewBox="0 0 16 16" version="1.1">
<defs>
<linearGradient id="linear0" gradientUnits="userSpaceOnUse" x1="254" y1="233.5" x2="254" y2="254.66667" gradientTransform="matrix(0.031253,0,0,0.031253,-0.00000125012,6.693527)">
<stop offset="0" style="stop-color:rgb(0%,0%,0%);stop-opacity:0.27451;"/>
<stop offset="1" style="stop-color:rgb(0%,0%,0%);stop-opacity:0;"/>
</linearGradient>
<radialGradient id="radial0" gradientUnits="userSpaceOnUse" cx="450.90894" cy="189.57936" fx="450.90894" fy="189.57936" r="21.166656" gradientTransform="matrix(0.0000000870852,-0.0390662,-0.0703192,-0.0000000507693,25.238422,31.771802)">
<stop offset="0" style="stop-color:rgb(0%,0%,0%);stop-opacity:0.313725;"/>
<stop offset="0.222222" style="stop-color:rgb(0%,0%,0%);stop-opacity:0.27451;"/>
<stop offset="1" style="stop-color:rgb(0%,0%,0%);stop-opacity:0;"/>
</radialGradient>
<radialGradient id="radial1" gradientUnits="userSpaceOnUse" cx="450.90894" cy="189.57936" fx="450.90894" fy="189.57936" r="21.166656" gradientTransform="matrix(-0.0000000870852,0.0390662,0.0703192,0.0000000507693,-9.361906,-3.789605)">
<stop offset="0" style="stop-color:rgb(0%,0%,0%);stop-opacity:0.313725;"/>
<stop offset="0.222222" style="stop-color:rgb(0%,0%,0%);stop-opacity:0.27451;"/>
<stop offset="1" style="stop-color:rgb(0%,0%,0%);stop-opacity:0;"/>
</radialGradient>
<radialGradient id="radial2" gradientUnits="userSpaceOnUse" cx="450.90894" cy="189.57936" fx="450.90894" fy="189.57936" r="21.166656" gradientTransform="matrix(-0.0000000870852,-0.0390662,0.0703192,-0.0000000507693,-9.361906,31.771802)">
<stop offset="0" style="stop-color:rgb(0%,0%,0%);stop-opacity:0.313725;"/>
<stop offset="0.222222" style="stop-color:rgb(0%,0%,0%);stop-opacity:0.27451;"/>
<stop offset="1" style="stop-color:rgb(0%,0%,0%);stop-opacity:0;"/>
</radialGradient>
<radialGradient id="radial3" gradientUnits="userSpaceOnUse" cx="450.90894" cy="189.57936" fx="450.90894" fy="189.57936" r="21.166656" gradientTransform="matrix(0.0000000870852,0.0390662,-0.0703192,0.0000000507693,25.238421,-3.789605)">
<stop offset="0" style="stop-color:rgb(0%,0%,0%);stop-opacity:0.313725;"/>
<stop offset="0.222222" style="stop-color:rgb(0%,0%,0%);stop-opacity:0.27451;"/>
<stop offset="1" style="stop-color:rgb(0%,0%,0%);stop-opacity:0;"/>
</radialGradient>
<linearGradient id="linear1" gradientUnits="userSpaceOnUse" x1="254" y1="233.5" x2="254" y2="254.66667" gradientTransform="matrix(0.031253,0,0,0.031253,7.442115,6.693527)">
<stop offset="0" style="stop-color:rgb(0%,0%,0%);stop-opacity:0.27451;"/>
<stop offset="1" style="stop-color:rgb(0%,0%,0%);stop-opacity:0;"/>
</linearGradient>
<radialGradient id="radial4" gradientUnits="userSpaceOnUse" cx="450.90894" cy="189.57936" fx="450.90894" fy="189.57936" r="21.166656" gradientTransform="matrix(-0.0000000870852,0.0390662,0.0703192,0.0000000507693,-1.919789,-3.789605)">
<stop offset="0" style="stop-color:rgb(0%,0%,0%);stop-opacity:0.313725;"/>
<stop offset="0.222222" style="stop-color:rgb(0%,0%,0%);stop-opacity:0.27451;"/>
<stop offset="1" style="stop-color:rgb(0%,0%,0%);stop-opacity:0;"/>
</radialGradient>
<radialGradient id="radial5" gradientUnits="userSpaceOnUse" cx="450.90894" cy="189.57936" fx="450.90894" fy="189.57936" r="21.166656" gradientTransform="matrix(-0.0000000870852,-0.0390662,0.0703192,-0.0000000507693,-1.919789,31.771802)">
<stop offset="0" style="stop-color:rgb(0%,0%,0%);stop-opacity:0.313725;"/>
<stop offset="0.222222" style="stop-color:rgb(0%,0%,0%);stop-opacity:0.27451;"/>
<stop offset="1" style="stop-color:rgb(0%,0%,0%);stop-opacity:0;"/>
</radialGradient>
<radialGradient id="radial6" gradientUnits="userSpaceOnUse" cx="450.90894" cy="189.57936" fx="450.90894" fy="189.57936" r="21.166656" gradientTransform="matrix(0.0000000870852,-0.0390662,-0.0703192,-0.0000000507693,17.796304,31.771802)">
<stop offset="0" style="stop-color:rgb(0%,0%,0%);stop-opacity:0.313725;"/>
<stop offset="0.222222" style="stop-color:rgb(0%,0%,0%);stop-opacity:0.27451;"/>
<stop offset="1" style="stop-color:rgb(0%,0%,0%);stop-opacity:0;"/>
</radialGradient>
<radialGradient id="radial7" gradientUnits="userSpaceOnUse" cx="450.90894" cy="189.57936" fx="450.90894" fy="189.57936" r="21.166656" gradientTransform="matrix(0.0000000870852,0.0390662,-0.0703192,0.0000000507693,17.796303,-3.789605)">
<stop offset="0" style="stop-color:rgb(0%,0%,0%);stop-opacity:0.313725;"/>
<stop offset="0.222222" style="stop-color:rgb(0%,0%,0%);stop-opacity:0.27451;"/>
<stop offset="1" style="stop-color:rgb(0%,0%,0%);stop-opacity:0;"/>
</radialGradient>
<linearGradient id="linear2" gradientUnits="userSpaceOnUse" x1="254" y1="275.83334" x2="254" y2="-211" gradientTransform="matrix(0.031253,0,0,0.031253,0,6.719392)">
<stop offset="0" style="stop-color:rgb(47.058824%,56.470588%,61.176471%);stop-opacity:1;"/>
<stop offset="1" style="stop-color:rgb(56.470588%,64.313725%,68.235294%);stop-opacity:1;"/>
</linearGradient>
<linearGradient id="linear3" gradientUnits="userSpaceOnUse" x1="254" y1="-211" x2="254" y2="297" gradientTransform="matrix(0.031253,0,0,0.031253,0,6.719392)">
<stop offset="0" style="stop-color:rgb(0%,0%,0%);stop-opacity:0.27451;"/>
<stop offset="1" style="stop-color:rgb(0%,0%,0%);stop-opacity:0;"/>
</linearGradient>
</defs>
<g id="surface1">
<path style=" stroke:none;fill-rule:nonzero;fill:url(#linear0);" d="M 3.804688 14.003906 L 4.628906 14.003906 L 4.628906 14.679688 L 3.804688 14.679688 Z M 3.804688 14.003906 "/>
<path style=" stroke:none;fill-rule:nonzero;fill:url(#radial0);" d="M 12.074219 13.992188 L 13.394531 13.992188 L 13.394531 13.328125 L 12.074219 13.328125 Z M 12.074219 13.992188 "/>
<path style=" stroke:none;fill-rule:nonzero;fill:url(#radial1);" d="M 3.804688 13.992188 L 2.480469 13.992188 L 2.480469 14.652344 L 3.804688 14.652344 Z M 3.804688 13.992188 "/>
<path style=" stroke:none;fill-rule:nonzero;fill:url(#radial2);" d="M 3.804688 13.992188 L 2.480469 13.992188 L 2.480469 13.328125 L 3.804688 13.328125 Z M 3.804688 13.992188 "/>
<path style=" stroke:none;fill-rule:nonzero;fill:url(#radial3);" d="M 12.074219 13.992188 L 13.394531 13.992188 L 13.394531 14.652344 L 12.074219 14.652344 Z M 12.074219 13.992188 "/>
<path style=" stroke:none;fill-rule:nonzero;fill:url(#linear1);" d="M 11.246094 14.003906 L 12.074219 14.003906 L 12.074219 14.679688 L 11.246094 14.679688 Z M 11.246094 14.003906 "/>
<path style=" stroke:none;fill-rule:nonzero;fill:url(#radial4);" d="M 11.246094 13.992188 L 9.921875 13.992188 L 9.921875 14.652344 L 11.246094 14.652344 Z M 11.246094 13.992188 "/>
<path style=" stroke:none;fill-rule:nonzero;fill:url(#radial5);" d="M 11.246094 13.992188 L 9.921875 13.992188 L 9.921875 13.328125 L 11.246094 13.328125 Z M 11.246094 13.992188 "/>
<path style=" stroke:none;fill-rule:nonzero;fill:url(#radial6);" d="M 4.628906 13.992188 L 5.953125 13.992188 L 5.953125 13.328125 L 4.628906 13.328125 Z M 4.628906 13.992188 "/>
<path style=" stroke:none;fill-rule:nonzero;fill:url(#radial7);" d="M 4.628906 13.992188 L 5.953125 13.992188 L 5.953125 14.652344 L 4.628906 14.652344 Z M 4.628906 13.992188 "/>
<path style=" stroke:none;fill-rule:nonzero;fill:url(#linear2);" d="M 5.953125 1.453125 C 5.777344 1.453125 5.613281 1.519531 5.488281 1.644531 L 2.84375 4.289062 C 2.71875 4.414062 2.648438 4.582031 2.648438 4.753906 L 2.648438 13.355469 C 2.648438 13.71875 2.945312 14.015625 3.308594 14.015625 L 5.292969 14.015625 L 5.292969 13.6875 C 5.292969 13.320312 5.585938 13.023438 5.953125 13.023438 L 9.921875 13.023438 C 10.289062 13.023438 10.585938 13.320312 10.585938 13.6875 L 10.585938 14.015625 L 12.570312 14.015625 C 12.933594 14.015625 13.226562 13.71875 13.226562 13.355469 L 13.226562 2.109375 C 13.226562 1.746094 12.933594 1.453125 12.570312 1.453125 Z M 5.953125 1.453125 "/>
<path style=" stroke:none;fill-rule:nonzero;fill:rgb(0%,0%,0%);fill-opacity:0.235294;" d="M 5.953125 12.78125 C 5.585938 12.78125 5.292969 13.074219 5.292969 13.441406 L 5.292969 13.6875 C 5.292969 13.320312 5.585938 13.023438 5.953125 13.023438 L 9.921875 13.023438 C 10.289062 13.023438 10.585938 13.320312 10.585938 13.6875 L 10.585938 13.441406 C 10.585938 13.074219 10.289062 12.78125 9.921875 12.78125 Z M 2.648438 13.109375 L 2.648438 13.355469 C 2.648438 13.71875 2.945312 14.015625 3.308594 14.015625 L 5.292969 14.015625 L 5.292969 13.769531 L 3.308594 13.769531 C 2.945312 13.769531 2.648438 13.472656 2.648438 13.109375 Z M 13.226562 13.109375 C 13.226562 13.472656 12.933594 13.769531 12.570312 13.769531 L 10.585938 13.769531 L 10.585938 14.015625 L 12.570312 14.015625 C 12.933594 14.015625 13.226562 13.71875 13.226562 13.355469 Z M 13.226562 13.109375 "/>
<path style=" stroke:none;fill-rule:nonzero;fill:url(#linear3);" d="M 6.285156 2.773438 C 6.109375 2.773438 5.941406 2.84375 5.820312 2.96875 L 4.164062 4.621094 C 4.042969 4.746094 3.972656 4.910156 3.972656 5.085938 L 3.972656 11.371094 C 3.972656 11.734375 4.265625 12.027344 4.628906 12.027344 L 11.246094 12.027344 C 11.609375 12.027344 11.902344 11.734375 11.902344 11.371094 L 11.902344 3.433594 C 11.902344 3.070312 11.609375 2.773438 11.246094 2.773438 Z M 6.285156 2.773438 "/>
<path style=" stroke:none;fill-rule:nonzero;fill:rgb(100%,100%,100%);fill-opacity:0.392157;" d="M 3.972656 11.371094 L 3.972656 11.617188 C 3.972656 11.984375 4.265625 12.277344 4.628906 12.277344 L 11.246094 12.277344 C 11.609375 12.277344 11.902344 11.984375 11.902344 11.617188 L 11.902344 11.371094 C 11.902344 11.734375 11.609375 12.027344 11.246094 12.027344 L 4.628906 12.027344 C 4.265625 12.027344 3.972656 11.734375 3.972656 11.371094 Z M 3.972656 11.371094 "/>
<path style=" stroke:none;fill-rule:nonzero;fill:rgb(0%,0%,0%);fill-opacity:0.235294;" d="M 6.285156 2.773438 C 6.109375 2.773438 5.941406 2.84375 5.820312 2.96875 L 4.164062 4.621094 C 4.042969 4.746094 3.972656 4.910156 3.972656 5.085938 L 3.972656 5.332031 C 3.972656 5.15625 4.042969 4.988281 4.164062 4.867188 L 5.820312 3.210938 C 5.941406 3.089844 6.109375 3.019531 6.285156 3.019531 L 11.246094 3.019531 C 11.609375 3.019531 11.902344 3.3125 11.902344 3.675781 L 11.902344 3.433594 C 11.902344 3.070312 11.609375 2.773438 11.246094 2.773438 Z M 6.285156 2.773438 "/>
<path style="fill:none;stroke-width:3;stroke-linecap:round;stroke-linejoin:round;stroke:rgb(12.941176%,12.941176%,12.941176%);stroke-opacity:1;stroke-miterlimit:4;" d="M 201.105795 -126.258474 C 195.481332 -126.258474 190.106846 -124.008689 186.232216 -120.009071 L 133.237276 -67.13912 C 129.362646 -63.139502 127.112861 -57.890003 127.112861 -52.26554 L 127.112861 148.840255 C 127.112861 160.464145 136.486966 169.83825 148.110856 169.83825 L 359.840637 169.83825 C 371.464527 169.83825 380.838632 160.464145 380.838632 148.840255 L 380.838632 -105.135492 C 380.838632 -116.759382 371.464527 -126.258474 359.840637 -126.258474 Z M 201.105795 -126.258474 " transform="matrix(0.031253,0,0,0.031253,0,6.719392)"/>
<path style=" stroke:none;fill-rule:nonzero;fill:rgb(100%,100%,100%);fill-opacity:0.392157;" d="M 5.953125 1.453125 C 5.777344 1.453125 5.613281 1.519531 5.488281 1.644531 L 2.84375 4.289062 C 2.71875 4.414062 2.648438 4.582031 2.648438 4.753906 L 2.648438 4.917969 C 2.648438 4.746094 2.71875 4.578125 2.84375 4.453125 L 5.488281 1.808594 C 5.613281 1.683594 5.777344 1.613281 5.953125 1.613281 L 12.570312 1.613281 C 12.933594 1.613281 13.226562 1.910156 13.226562 2.273438 L 13.226562 2.109375 C 13.226562 1.746094 12.933594 1.453125 12.570312 1.453125 Z M 5.953125 1.453125 "/>
<path style="fill:none;stroke-width:11.338583;stroke-linecap:round;stroke-linejoin:round;stroke:rgb(12.941176%,12.941176%,12.941176%);stroke-opacity:1;stroke-miterlimit:4;" d="M 719.931259 175.731252 C 698.673446 175.731252 678.832821 183.761981 663.716154 198.878648 L 343.904171 518.690632 C 328.787504 533.807298 320.284379 554.120319 320.284379 574.905736 L 320.284379 1615.121375 C 320.284379 1659.054188 356.186463 1694.956271 400.119276 1694.956271 L 640.096362 1694.956271 L 640.096362 1655.275021 C 640.096362 1610.869812 675.52605 1574.967728 719.931259 1574.967728 L 1199.885432 1574.967728 C 1244.290641 1574.967728 1280.192724 1610.869812 1280.192724 1655.275021 L 1280.192724 1694.956271 L 1520.169811 1694.956271 C 1564.102624 1694.956271 1599.532312 1659.054188 1599.532312 1615.121375 L 1599.532312 255.093753 C 1599.532312 211.16094 1564.102624 175.731252 1520.169811 175.731252 Z M 719.931259 175.731252 " transform="matrix(0.00826902,0,0,0.00826902,0,0)"/>
</g>
</svg>
